Flat-Remix-Blue/mimetypes/scalable/application-certificate.svg

<svg xmlns="http://www.w3.org/2000/svg" xmlns:xlink="http://www.w3.org/1999/xlink" width="36pt" height="36pt" version="1.1" viewBox="0 0 36 36"> <defs> <clipPath id="clip1"> <path d="M 20 2 L 31 2 L 31 13 L 20 13 Z M 20 2"/> </clipPath> <clipPath id="clip2"> <path d="M 20.515625 2.625 L 30.328125 12.4375 L 22.023438 12.4375 C 21.292969 12.4375 20.515625 11.660156 20.515625 10.929688 Z M 20.515625 2.625"/> </clipPath> <image id="image6" width="36" height="36" xlink:href="data:image/png;base64,iVBORw0KGgoAAAANSUhEUgAAACQAAAAkCAYAAADhAJiYAAAABmJLR0QA/wD/AP+gvaeTAAAAmklEQVRYhe3T0QqCQBBG4aOtYEoUvf9Lildltl00C4tkbBeTIP+BAUEYP1YW1Pcqh53B9kbgaVPcwQF0tAmGSrMZ6AKcDQXw+AUVHEAtcAUaewYYgYmC3+cBCkAPnDJQMcoDVNnebgEqQnmAclTz4d0I3P4JStc9AjXvk4qLWQV53LLeEOl05gw4A3dgcPiuUkoppZRSSqk99gLWvSJpuDnlsAAAAABJRU5ErkJggg=="/> </defs> <g> <path style="fill:rgb(97.254%,87.058%,40.784%)" d="M 7.347656 3.152344 C 6.675781 3.152344 6.042969 3.785156 6.042969 4.457031 L 6.042969 31.847656 C 6.042969 32.480469 6.714844 33.152344 7.347656 33.152344 L 28.21875 33.152344 C 28.851562 33.152344 29.523438 32.480469 29.523438 31.847656 L 29.523438 11.632812 L 21.042969 3.152344 Z M 7.347656 3.152344"/> <g clip-path="url(#clip1)"> <g clip-path="url(#clip2)"> <use xlink:href="#image6"/> </g> </g> <path style="fill:rgb(98.039%,90.980%,58.431%)" d="M 21.042969 3.152344 L 29.523438 11.632812 L 22.347656 11.632812 C 21.714844 11.632812 21.042969 10.960938 21.042969 10.328125 Z M 21.042969 3.152344"/> <path style="fill:rgb(100.000%,100.000%,100.000%)" d="M 18 10.828125 C 17.46875 10.828125 17.023438 11.121094 16.820312 11.542969 C 16.414062 11.273438 15.851562 11.222656 15.390625 11.46875 C 14.9375 11.714844 14.691406 12.183594 14.738281 12.640625 C 14.246094 12.597656 13.738281 12.824219 13.476562 13.246094 C 13.210938 13.671875 13.265625 14.195312 13.558594 14.570312 C 13.101562 14.757812 12.78125 15.171875 12.78125 15.664062 C 12.78125 16.15625 13.101562 16.574219 13.558594 16.761719 C 13.265625 17.136719 13.210938 17.660156 13.476562 18.085938 C 13.738281 18.507812 14.246094 18.734375 14.738281 18.691406 C 14.691406 19.144531 14.933594 19.617188 15.390625 19.863281 C 15.59375 19.972656 15.820312 20.015625 16.042969 20.011719 L 16.042969 25.175781 L 18 23.359375 L 19.957031 25.175781 L 19.957031 20.011719 C 20.179688 20.015625 20.402344 19.972656 20.609375 19.863281 C 21.0625 19.617188 21.308594 19.144531 21.261719 18.691406 C 21.753906 18.734375 22.261719 18.507812 22.523438 18.085938 C 22.789062 17.660156 22.734375 17.136719 22.441406 16.761719 C 22.898438 16.574219 23.21875 16.15625 23.21875 15.664062 C 23.21875 15.171875 22.898438 14.757812 22.441406 14.570312 C 22.734375 14.195312 22.789062 13.671875 22.523438 13.246094 C 22.261719 12.824219 21.753906 12.597656 21.261719 12.640625 C 21.308594 12.183594 21.066406 11.710938 20.609375 11.46875 C 20.148438 11.222656 19.585938 11.273438 19.183594 11.542969 C 18.976562 11.121094 18.53125 10.824219 18 10.824219 Z M 18 12.621094 C 19.800781 12.621094 21.261719 13.976562 21.261719 15.648438 C 21.261719 17.316406 19.800781 18.671875 18 18.671875 C 16.199219 18.671875 14.738281 17.316406 14.738281 15.648438 C 14.738281 13.976562 16.199219 12.621094 18 12.621094 Z M 18 13.226562 C 16.558594 13.226562 15.390625 14.308594 15.390625 15.648438 C 15.390625 16.984375 16.558594 18.066406 18 18.066406 C 19.441406 18.066406 20.609375 16.984375 20.609375 15.648438 C 20.609375 14.308594 19.441406 13.226562 18 13.226562 Z M 18 13.226562"/> </g> </svg>

<svg width="36pt" height="36pt" version="1.1" viewBox="0 0 36 36" xmlns="http://www.w3.org/2000/svg"><defs><filter id="a" x="-.192" y="-.192" width="1.384" height="1.384" color-interpolation-filters="sRGB"><feGaussianBlur stdDeviation="0.67843748"/></filter></defs><path d="m7.3477 3.1523c-0.67188 0-1.3047 0.63281-1.3047 1.3047v27.391c0 0.63281 0.67188 1.3047 1.3047 1.3047h20.871c0.63281 0 1.3047-0.67188 1.3047-1.3047v-20.215l-8.4805-8.4805z" fill="#f7dd67"/><path d="m20.668 3.5272 8.4805 8.4805h-7.1758c-0.63281 0-1.3047-0.67187-1.3047-1.3047z" filter="url(#a)" opacity=".2"/><path d="m21.043 3.1523 8.4805 8.4805h-7.1758c-0.63281 0-1.3047-0.67187-1.3047-1.3047z" fill="#f9e794"/><path d="m18 10.828c-0.53125 0-0.97656 0.29297-1.1797 0.71484-0.40625-0.26953-0.96875-0.32031-1.4297-0.074219-0.45312 0.24609-0.69922 0.71484-0.65234 1.1719-0.49219-0.042969-1 0.18359-1.2617 0.60547-0.26562 0.42578-0.21094 0.94922 0.082032 1.3242-0.45703 0.1875-0.77734 0.60156-0.77734 1.0938 0 0.49219 0.32031 0.91016 0.77734 1.0977-0.29297 0.375-0.34766 0.89844-0.082032 1.3242 0.26172 0.42187 0.76953 0.64844 1.2617 0.60547-0.046875 0.45312 0.19531 0.92578 0.65234 1.1719 0.20312 0.10938 0.42969 0.15234 0.65234 0.14844v5.1641l1.957-1.8164 1.957 1.8164v-5.1641c0.22266 0.003906 0.44531-0.039063 0.65234-0.14844 0.45312-0.24609 0.69922-0.71875 0.65234-1.1719 0.49219 0.042969 1-0.18359 1.2617-0.60547 0.26562-0.42578 0.21094-0.94922-0.082032-1.3242 0.45703-0.1875 0.77734-0.60547 0.77734-1.0977 0-0.49219-0.32031-0.90625-0.77734-1.0938 0.29297-0.375 0.34766-0.89844 0.082032-1.3242-0.26172-0.42188-0.76953-0.64844-1.2617-0.60547 0.046875-0.45703-0.19531-0.92969-0.65234-1.1719-0.46094-0.24609-1.0234-0.19531-1.4258 0.074219-0.20703-0.42188-0.65234-0.71875-1.1836-0.71875zm0 1.793c1.8008 0 3.2617 1.3555 3.2617 3.0273 0 1.668-1.4609 3.0234-3.2617 3.0234s-3.2617-1.3555-3.2617-3.0234c0-1.6719 1.4609-3.0273 3.2617-3.0273zm0 0.60547c-1.4414 0-2.6094 1.082-2.6094 2.4219 0 1.3359 1.168 2.418 2.6094 2.418s2.6094-1.082 2.6094-2.418c0-1.3398-1.168-2.4219-2.6094-2.4219z" fill="#fff"/></svg>
